src/2-landmarks/ticket-office--handle-card.svg

<svg width="1300" height="1000" fill="none" xmlns="http://www.w3.org/2000/svg"><path d="m973.43 466.31.01.01-.46.97-.02.05h-.01l.02-.05.89-2.02.06.01-.49 1.03ZM0 900h1300v100H0V900Z" fill="#000"/><path fill-rule="evenodd" clip-rule="evenodd" d="M822 107h478v-7H820c-11.046 0-20 8.954-20 20v780h7V507h493v-7h-21.04c.28-10.498.47-21.054.47-30.838 0-1.662-5.91-57.127-23.43-93.162-15.05-29.175-40.06-34.545-80.18-34.979-36.98-.426-60.32 6.979-85.95 34.197C1069.5 406 1056 428.5 1056 428.5l-42.5-42-19.491-26.765 8.651-8.652a3.003 3.003 0 0 0 0-4.243l-41.718-41.719a3 3 0 0 0-4.243 0l-27.577 27.577a3 3 0 0 0 0 4.243l37.415 37.415L972 396l20.443 23.953c-31.58 10.264-54.718 42.239-54.892 80.047H807V157h493v-7H807v-28c0-8.284 6.716-15 15-15Zm152.09 268.017-1.128-4.135-.116-.117-2.639-9.017c-1.353-4.622 2.113-9.248 6.929-9.248a7.22 7.22 0 0 1 6.007 3.215L1006 390l31.28 30.37a70.363 70.363 0 0 0-23.04-3.87c-4.74 0-9.39.474-13.89 1.38L979.5 393.5l-5.41-18.483Zm-10.777-13.784L936.9 334.819l21.92-21.92 36.063 36.062-5.045 5.046-1.385-1.901c-2.992-4.281-9.286-7.313-14.375-6.135-6.557 1.519-11.567 8.651-10.765 15.262Zm34.093 64.535c-30.203 8.298-52.677 38.397-52.855 74.232h139.379c-.05-9.143-1.54-17.914-4.25-26.045l-16.84 19.646a5.007 5.007 0 0 1-7.6-.066l-57.834-67.767Zm79.274 40.521-15.39 17.554a3 3 0 0 1-4.56-.023l-51.08-59.739a63.72 63.72 0 0 1 8.59-.581c27.33 0 51.03 17.452 62.44 42.789Zm8.23 1.557c3.83 9.899 5.97 20.762 6.02 32.154h14.29l1.28-13 7-52.5-28.59 33.346ZM1113.27 500l1.23-12.5 5.91-68.427a.97.97 0 0 0-1.7-.717l-37 42.202c-5.11-10.31-12.13-19.325-20.55-26.469 5.54-8.886 17.2-27.469 34.06-53.574 21.78-29.515 62.28-32.707 80.27-32.494 37.97.425 60.76 3.937 74.96 32.494 16.54 35.272 20.98 91.956 20.98 91.956h.01l-.11 27.529h-30.01l-2.81-30.909-7.46-50.009a1.234 1.234 0 0 0-1.21-1.07 1.235 1.235 0 0 0-1.24 1.324L1232 488l1.2 12h-119.93Z" fill="#000"/><path fill-rule="evenodd" clip-rule="evenodd" d="M1177 335c1.84-.004 8.88-.506 12.65-1.914 4.51-1.684 8.75-4.937 11.67-8.613 2.11-2.652 4.28-8.036 5.32-10.829a25.09 25.09 0 0 0 1.01-3.617l4.86-23.833c.29-1.783.49-3.939.49-5.742 0-4.783-.91-9.015-2.92-13.398-2.01-4.383-4.59-8.232-8.27-11.484-3.68-3.252-8.52-6.048-13.26-7.625-4.74-1.466-6.59-1.778-11.55-1.945-4.62.038-7.3.483-11.68 1.945-5.64 1.883-8.78 3.629-13.13 7.625-4.09 3.749-6.04 6.446-8.27 11.484-2.17 4.905-2.9 8.047-2.92 13.398-.01 2.25.49 5.742.49 5.742l4.09 24.154c.19 1.122.44 2.231.8 3.31.88 2.63 2.83 7.831 5.32 10.853 3.68 4.466 6.72 6.496 12.16 8.575C1168.7 334.931 1177 335 1177 335Zm0-7c1.48-.004 7.15-.427 10.19-1.613 3.63-1.419 7.05-4.16 9.4-7.258 1.65-2.168 3.34-6.503 4.21-8.91.4-1.135.7-2.302.93-3.486l3.88-19.862c.23-1.502.39-3.319.39-4.839 0-4.03-.73-7.596-2.35-11.29-1.62-3.694-3.7-6.937-6.66-9.677-2.97-2.741-6.87-5.097-10.69-6.426-3.81-1.236-5.3-1.498-9.3-1.639-3.73.032-5.88.407-9.41 1.639-4.54 1.587-7.07 3.058-10.58 6.426-3.29 3.159-4.86 5.431-6.66 9.677-1.75 4.134-2.33 6.781-2.35 11.29-.01 1.896.39 4.839.39 4.839l3.27 20.155c.17 1.079.4 2.145.74 3.184.74 2.271 2.27 6.477 4.22 8.951 2.97 3.764 5.41 5.474 9.8 7.226C1170.31 327.942 1177 328 1177 328Z" fill="#000"/></svg>

<svg width="1300" height="1000" viewBox="0 0 1300 1000" fill="none" xmlns="http://www.w3.org/2000/svg">
<path d="M973.43 466.31L973.44 466.32L972.98 467.29L972.96 467.34H972.95L972.97 467.29L973.86 465.27L973.92 465.28L973.43 466.31Z" fill="black"/>
<path d="M0 900H1300V1000H0V900Z" fill="black"/>
<path fill-rule="evenodd" clip-rule="evenodd" d="M822 107H1300V100H820C808.954 100 800 108.954 800 120V900H807V507H1300V500H1278.96C1279.24 489.502 1279.43 478.946 1279.43 469.162C1279.43 467.5 1273.52 412.035 1256 376C1240.95 346.825 1215.94 341.455 1175.82 341.021C1138.84 340.595 1115.5 348 1089.87 375.218C1069.5 406 1056 428.5 1056 428.5L1013.5 386.5L994.009 359.735L1002.66 351.083C1003.83 349.911 1003.83 348.012 1002.66 346.84L960.942 305.121C959.77 303.949 957.871 303.949 956.699 305.121L929.122 332.698C927.95 333.87 927.95 335.769 929.122 336.941L966.537 374.356L972 396L992.443 419.953C960.863 430.217 937.725 462.192 937.551 500H807V157H1300V150H807V122C807 113.716 813.716 107 822 107ZM974.09 375.017L972.962 370.882L972.846 370.765L970.207 361.748C968.854 357.126 972.32 352.5 977.136 352.5C979.55 352.5 981.804 353.707 983.143 355.715L1006 390L1037.28 420.37C1030.01 417.856 1022.26 416.5 1014.24 416.5C1009.5 416.5 1004.85 416.974 1000.35 417.88L979.5 393.5L974.09 375.017ZM963.313 361.233L936.9 334.819L958.82 312.899L994.883 348.961L989.838 354.007L988.453 352.106C985.461 347.825 979.167 344.793 974.078 345.971C967.521 347.49 962.511 354.622 963.313 361.233ZM997.406 425.768C967.203 434.066 944.729 464.165 944.551 500H1083.93C1083.88 490.857 1082.39 482.086 1079.68 473.955L1062.84 493.601C1060.82 495.913 1057.22 495.881 1055.24 493.535L997.406 425.768ZM1076.68 466.289L1061.29 483.843C1060.09 485.238 1057.92 485.227 1056.73 483.82L1005.65 424.081C1008.47 423.698 1011.33 423.5 1014.24 423.5C1041.57 423.5 1065.27 440.952 1076.68 466.289ZM1084.91 467.846C1088.74 477.745 1090.88 488.608 1090.93 500H1105.22L1106.5 487L1113.5 434.5L1084.91 467.846ZM1113.27 500L1114.5 487.5L1120.41 419.073C1120.46 418.507 1120.01 418.021 1119.44 418.021C1119.16 418.021 1118.89 418.143 1118.71 418.356L1081.71 460.558C1076.6 450.248 1069.58 441.233 1061.16 434.089C1066.7 425.203 1078.36 406.62 1095.22 380.515C1117 351 1157.5 347.808 1175.49 348.021C1213.46 348.446 1236.25 351.958 1250.45 380.515C1266.99 415.787 1271.43 472.471 1271.43 472.471H1271.44L1271.33 500H1241.32L1238.51 469.091L1231.05 419.082C1230.97 418.474 1230.45 418.017 1229.84 418.012C1229.12 418.005 1228.55 418.618 1228.6 419.336L1232 488L1233.2 500H1113.27Z" fill="black"/>
<path fill-rule="evenodd" clip-rule="evenodd" d="M1177 335C1178.84 334.996 1185.88 334.494 1189.65 333.086C1194.16 331.402 1198.4 328.149 1201.32 324.473C1203.43 321.821 1205.6 316.437 1206.64 313.644C1207.07 312.468 1207.4 311.256 1207.65 310.027L1212.51 286.194C1212.8 284.411 1213 282.255 1213 280.452C1213 275.669 1212.09 271.437 1210.08 267.054C1208.07 262.671 1205.49 258.822 1201.81 255.57C1198.13 252.318 1193.29 249.522 1188.55 247.945C1183.81 246.479 1181.96 246.167 1177 246C1172.38 246.038 1169.7 246.483 1165.32 247.945C1159.68 249.828 1156.54 251.574 1152.19 255.57C1148.1 259.319 1146.15 262.016 1143.92 267.054C1141.75 271.959 1141.02 275.101 1141 280.452C1140.99 282.702 1141.49 286.194 1141.49 286.194L1145.58 310.348C1145.77 311.47 1146.02 312.579 1146.38 313.658C1147.26 316.288 1149.21 321.489 1151.7 324.511C1155.38 328.977 1158.42 331.007 1163.86 333.086C1168.7 334.931 1177 335 1177 335ZM1177 328C1178.48 327.996 1184.15 327.573 1187.19 326.387C1190.82 324.968 1194.24 322.227 1196.59 319.129C1198.24 316.961 1199.93 312.626 1200.8 310.219C1201.2 309.084 1201.5 307.917 1201.73 306.733L1205.61 286.871C1205.84 285.369 1206 283.552 1206 282.032C1206 278.002 1205.27 274.436 1203.65 270.742C1202.03 267.048 1199.95 263.805 1196.99 261.065C1194.02 258.324 1190.12 255.968 1186.3 254.639C1182.49 253.403 1181 253.141 1177 253C1173.27 253.032 1171.12 253.407 1167.59 254.639C1163.05 256.226 1160.52 257.697 1157.01 261.065C1153.72 264.224 1152.15 266.496 1150.35 270.742C1148.6 274.876 1148.02 277.523 1148 282.032C1147.99 283.928 1148.39 286.871 1148.39 286.871L1151.66 307.026C1151.83 308.105 1152.06 309.171 1152.4 310.21C1153.14 312.481 1154.67 316.687 1156.62 319.161C1159.59 322.925 1162.03 324.635 1166.42 326.387C1170.31 327.942 1177 328 1177 328Z" fill="black"/>
</svg>
